X: 21683
T: MONNIE MUSK
N: Also spelled "Monymusk", "Money Musk", etc.
C: Donald Dow
Q: "Strathspey."
%R: strathspey
B: W. Hamilton "Universal Tune-Book" Vol. 2 Glasgow 1846 p.168 #3
S: http://s3-eu-west-1.amazonaws.com/itma.dl.printmaterial/book_pdfs/hamiltonvol2web.pdf
Z: 2016 John Chambers <jc:trillian.mit.edu>
M: C
L: 1/16
K: G
% - - - - - - - - - - - - - - - - - - - - - - - - -
e2 |\
dG3B3G d3Gc2e2 | dG3BG3 (3(A2B2A2) c3e |\
d3GB3G (Bcd2) d3g | e3cA2d2 B2G2G2 :|\
(ef) |\
g3dd2g2 B2g2d2g2 | g3dc2g2 B2g2A3f |
g3de2g2 dg3Bg3 | ec3A3d B2G2G2f2 |\
g3dd2g2 Bg3d3f | g3dc2a2 B2g2A3f |\
g3deg3 Bb3ca3 | Bg3Ag3 B3GG2 |]
% - - - - - - - - - - - - - - - - - - - - - - - - -

%%sep 1 1 500
%%sep 1 1 500

